flaticon/delivery/suitcase.svg

<svg xmlns="http://www.w3.org/2000/svg" width="32" height="32" viewBox="0 0 24 24">
    <path d="M2.398438 18.199219C2.160156 18.199219 2 18.359375 2 18.601562 2 18.839844 2.160156 19 2.398438 19 2.640625 19 2.800781 18.839844 2.800781 18.601562 2.800781 18.359375 2.640625 18.199219 2.398438 18.199219zM4 18.199219C3.761719 18.199219 3.601562 18.359375 3.601562 18.601562 3.601562 18.839844 3.761719 19 4 19 4.238281 19 4.398438 18.839844 4.398438 18.601562 4.398438 18.359375 4.238281 18.199219 4 18.199219zM5.601562 18.199219C5.359375 18.199219 5.199219 18.359375 5.199219 18.601562 5.199219 18.839844 5.359375 19 5.601562 19 5.839844 19 6 18.839844 6 18.601562 6 18.359375 5.839844 18.199219 5.601562 18.199219zM7.199219 18.199219C6.960938 18.199219 6.800781 18.359375 6.800781 18.601562 6.800781 18.839844 6.960938 19 7.199219 19 7.441406 19 7.601562 18.839844 7.601562 18.601562 7.601562 18.359375 7.441406 18.199219 7.199219 18.199219zM8.800781 18.199219C8.558594 18.199219 8.398438 18.359375 8.398438 18.601562 8.398438 18.839844 8.558594 19 8.800781 19 9.039062 19 9.199219 18.839844 9.199219 18.601562 9.199219 18.359375 9.039062 18.199219 8.800781 18.199219zM10.398438 18.199219C10.160156 18.199219 10 18.359375 10 18.601562 10 18.839844 10.160156 19 10.398438 19 10.640625 19 10.800781 18.839844 10.800781 18.601562 10.800781 18.359375 10.640625 18.199219 10.398438 18.199219zM12 18.199219C11.761719 18.199219 11.601562 18.359375 11.601562 18.601562 11.601562 18.839844 11.761719 19 12 19 12.238281 19 12.398438 18.839844 12.398438 18.601562 12.398438 18.359375 12.238281 18.199219 12 18.199219zM13.601562 18.199219C13.359375 18.199219 13.199219 18.359375 13.199219 18.601562 13.199219 18.839844 13.359375 19 13.601562 19 13.839844 19 14 18.839844 14 18.601562 14 18.359375 13.839844 18.199219 13.601562 18.199219zM15.199219 18.199219C14.960938 18.199219 14.800781 18.359375 14.800781 18.601562 14.800781 18.839844 14.960938 19 15.199219 19 15.441406 19 15.601562 18.839844 15.601562 18.601562 15.601562 18.359375 15.441406 18.199219 15.199219 18.199219zM16.800781 18.199219C16.558594 18.199219 16.398438 18.359375 16.398438 18.601562 16.398438 18.839844 16.558594 19 16.800781 19 17.039062 19 17.199219 18.839844 17.199219 18.601562 17.199219 18.359375 17.039062 18.199219 16.800781 18.199219zM18.398438 18.199219C18.160156 18.199219 18 18.359375 18 18.601562 18 18.839844 18.160156 19 18.398438 19 18.640625 19 18.800781 18.839844 18.800781 18.601562 18.800781 18.359375 18.640625 18.199219 18.398438 18.199219zM20 18.199219C19.761719 18.199219 19.601562 18.359375 19.601562 18.601562 19.601562 18.839844 19.761719 19 20 19 20.238281 19 20.398438 18.839844 20.398438 18.601562 20.398438 18.359375 20.238281 18.199219 20 18.199219zM21.601562 18.199219C21.359375 18.199219 21.199219 18.359375 21.199219 18.601562 21.199219 18.839844 21.359375 19 21.601562 19 21.839844 19 22 18.839844 22 18.601562 22 18.359375 21.839844 18.199219 21.601562 18.199219zM21.601562 18.199219"/>
    <path d="M 22 16.601562 L 21.199219 16.601562 L 21.199219 7.441406 C 21.199219 6.320312 20.28125 5.398438 19.199219 5.398438 L 15.566406 5.398438 C 15.375 4.269531 14.382812 3.398438 13.199219 3.398438 L 10.800781 3.398438 C 9.617188 3.398438 8.625 4.269531 8.433594 5.398438 L 4.839844 5.398438 C 3.71875 5.398438 2.800781 6.320312 2.800781 7.441406 L 2.800781 16.601562 L 2 16.601562 C 0.878906 16.601562 0 17.480469 0 18.601562 C 0 19.71875 0.878906 20.601562 2 20.601562 L 22 20.601562 C 23.121094 20.601562 24 19.71875 24 18.601562 C 24 17.480469 23.121094 16.601562 22 16.601562 Z M 10.761719 4.199219 L 13.160156 4.199219 C 13.921875 4.199219 14.558594 4.71875 14.71875 5.398438 L 9.238281 5.398438 C 9.441406 4.71875 10.039062 4.199219 10.761719 4.199219 Z M 3.601562 7.441406 C 3.601562 6.761719 4.160156 6.199219 4.839844 6.199219 L 17.441406 6.199219 L 16.238281 7.398438 L 14.761719 7.398438 C 14.679688 7.398438 14.558594 7.441406 14.480469 7.519531 L 12.121094 9.921875 C 11.960938 10.078125 11.960938 10.320312 12.121094 10.480469 L 13.71875 12.078125 C 13.800781 12.160156 13.878906 12.199219 14 12.199219 C 14.078125 12.199219 14.199219 12.160156 14.28125 12.078125 L 16.679688 9.878906 C 16.761719 9.800781 16.800781 9.71875 16.800781 9.601562 L 16.800781 7.960938 L 18.558594 6.199219 L 19.160156 6.199219 C 19.839844 6.199219 20.398438 6.761719 20.398438 7.441406 L 20.398438 16.601562 L 3.601562 16.601562 Z M 16 8.199219 L 16 9.398438 L 14 11.238281 L 12.960938 10.199219 L 14.921875 8.199219 Z M 22 19.800781 L 2 19.800781 C 1.320312 19.800781 0.800781 19.28125 0.800781 18.601562 C 0.800781 17.921875 1.320312 17.398438 2 17.398438 L 22 17.398438 C 22.679688 17.398438 23.199219 17.921875 23.199219 18.601562 C 23.199219 19.28125 22.679688 19.800781 22 19.800781 Z M 22 19.800781"/>
</svg>

<svg xmlns="http://www.w3.org/2000/svg" width="32" height="32" viewBox="0 0 24 24">
    <path d="M2.398 18.2c-.238 0-.398.16-.398.402 0 .238.16.398.398.398.243 0 .403-.16.403-.398 0-.243-.16-.403-.403-.403zm0 0M4 18.2c-.238 0-.398.16-.398.402 0 .238.16.398.398.398.238 0 .398-.16.398-.398 0-.243-.16-.403-.398-.403zm0 0M5.602 18.2c-.243 0-.403.16-.403.402 0 .238.16.398.403.398.238 0 .398-.16.398-.398 0-.243-.16-.403-.398-.403zm0 0M7.2 18.2c-.24 0-.4.16-.4.402 0 .238.16.398.4.398.241 0 .402-.16.402-.398 0-.243-.16-.403-.403-.403zm0 0M8.8 18.2c-.241 0-.402.16-.402.402 0 .238.16.398.403.398.238 0 .398-.16.398-.398 0-.243-.16-.403-.398-.403zm0 0M10.398 18.2c-.238 0-.398.16-.398.402 0 .238.16.398.398.398.243 0 .403-.16.403-.398 0-.243-.16-.403-.403-.403zm0 0M12 18.2c-.238 0-.398.16-.398.402 0 .238.16.398.398.398.238 0 .398-.16.398-.398 0-.243-.16-.403-.398-.403zm0 0M13.602 18.2c-.243 0-.403.16-.403.402 0 .238.16.398.403.398.238 0 .398-.16.398-.398 0-.243-.16-.403-.398-.403zm0 0M15.2 18.2c-.24 0-.4.16-.4.402 0 .238.16.398.4.398.241 0 .402-.16.402-.398 0-.243-.16-.403-.403-.403zm0 0M16.8 18.2c-.241 0-.402.16-.402.402 0 .238.16.398.403.398.238 0 .398-.16.398-.398 0-.243-.16-.403-.398-.403zm0 0M18.398 18.2c-.238 0-.398.16-.398.402 0 .238.16.398.398.398.243 0 .403-.16.403-.398 0-.243-.16-.403-.403-.403zm0 0M20 18.2c-.238 0-.398.16-.398.402 0 .238.16.398.398.398.238 0 .398-.16.398-.398 0-.243-.16-.403-.398-.403zm0 0M21.602 18.2c-.243 0-.403.16-.403.402 0 .238.16.398.403.398.238 0 .398-.16.398-.398 0-.243-.16-.403-.398-.403zm0 0"/>
    <path d="M22 16.602h-.8v-9.16c0-1.122-.919-2.044-2-2.044h-3.634a2.412 2.412 0 0 0-2.367-2h-2.398a2.412 2.412 0 0 0-2.367 2H4.84c-1.121 0-2.04.922-2.04 2.043v9.16H2c-1.121 0-2 .88-2 2 0 1.118.879 2 2 2h20c1.121 0 2-.882 2-2 0-1.12-.879-2-2-2zM10.762 4.199h2.398c.762 0 1.399.52 1.559 1.2h-5.48c.202-.68.8-1.2 1.523-1.2zm-7.16 3.242c0-.68.558-1.242 1.238-1.242H17.44l-1.203 1.2h-1.476a.438.438 0 0 0-.282.12l-2.359 2.403a.385.385 0 0 0 0 .558l1.598 1.598c.082.082.16.121.281.121.078 0 .2-.039.281-.12l2.399-2.2a.353.353 0 0 0 .12-.277V7.96l1.759-1.762h.601c.68 0 1.238.563 1.238 1.242v9.16H3.602zM16 8.2v1.2l-2 1.84-1.04-1.04 1.962-2zm6 11.602H2c-.68 0-1.2-.52-1.2-1.2 0-.68.52-1.203 1.2-1.203h20c.68 0 1.2.524 1.2 1.204 0 .68-.52 1.199-1.2 1.199zm0 0"/>
</svg>
